X:1
T:The Cruel Sister
M:3/4
L:1/8
K:C
 D| DE G2 G2| G2 G2 G2| B2 A3/2- G/2 B2| GE D3 D| DE G2 G2| G2 G2G-B|\
G/2-A/2 B d2 e3/2- d/2| d4 de| c2 cc cc| e3 ze/2-f/2 g| e3/2- d/2c/2 B3/2B/2-A/2 G|\
 G3 E D2|D/2-E/2 G A2 B2|e-f g4| e3/2- d/2 c3/2- B/2 A3/2- G/2| G3||\
